X:1
T:God Made Me, 10.10.10.10
T:John Frederick Bridge, 1889
T:God Made Me, 10.10.10.10
T:Public Domain
C:John Frederick Bridge, 1889
Z:Public Domain
%%score ( 1 2 ) ( 3 4 )
L:1/8
M:4/4
K:Eb
V:1 treble 
V:2 treble 
V:3 bass 
V:4 bass 
V:1
 [EB]2 | [EG]2 [EA]2 [EF]2 [DG]2 | [CE]2 [EG]2 F2 z F x | D6 [CE]2 | [CF]2 [=EG]2 [FA]2 [Fc]2 | %5
 [Fc]2 [FB]2 E2 z c x | [DB]6 [Dc]2 | [EB]2 [FA]2 [EG]2 [E_d]2 | [Ec]2 [EB]2 [Ec]2 [EA]2 | %9
 [DF]6 E2 | [EG]2 [FB]2 [Be]2 [Bd]2 | [Ac]2 [EA]2 [EG]2 [DF]2 | E6 |] %13
V:2
 x2 | x8 | x4 A3 C2 | D6 x2 | x8 | x4 e3 E2 | x8 | x8 | x8 | x6 E2 | x8 | x8 | E6 |] %13
V:3
 [E,G,]2 | [E,B,]2 [A,,C]2 [A,,C]2 [B,,B,]2 | [C,G,]2 [C,C]2 [F,C]2 [F,A,]2 x | [B,,B,]6 [C,G,]2 | %4
 [A,C]2 [G,B,]2 [F,C]2 [F,A,]2 | [D,F,]2 [D,B,]2 [C,B,]2 [F,=A,]2 x | [B,,B,]6 [B,,A,]2 | %7
 [C,G,]2 [D,B,]2 [E,B,]2 [E,G,]2 | [F,A,]2 [G,B,]2 A,2 [A,C]2 | [A,B,]6 [G,B,]2 | %10
 C2 (B,A,) [G,E]2 [G,E]2 | [A,E]2 [A,,C]2 [B,,B,]2 [B,,A,]2 | [E,G,]6 |] %13
V:4
 x2 | x8 | x9 | x8 | x8 | x9 | x8 | x8 | x4 A,2 x2 | x8 | C2 D2 x4 | x8 | x6 |] %13

